!!!OTL: Ritter und Magd.
!!!OTL-incipit: Es spielt' ein Ritter mit seiner Magd
!!!ARE: Europa, Mitteleuropa, Deutschland (BRD), Nord - Bayern, Franken
!!!YOR: 3, S. 60
!!    1855 gedruckt in Leipzig
!!!SCT: Q0055Z
!!!TXL: @@DE
!!!YEM: Copyright 1995, estate of Helmut Schaffrath.
**kern	**text
*ICvox	*
*M6/8	*
*k[b-]	*
*F:	*
!LO:TX:a:t=Die främkische Fassung 124.	!
{16fL	Es
16gJ	.
=:	=:
4a	ſpielt'
8a	ein
=1	=1
8f	Rit-
8f	-ter
8g	mit
=:	=:
4a	ſei-
8a	-ner
=2	=2
4f}	Magd
{8g	bis
=:	=:
4a	an
8a	den
=3	=3
8b-L	hel-
8aJ	.
8g	-len
=:	=:
(4g	Mor-
8a)	.
=4	=4
4f}	-gen.
{16fL	fi-
16gJ	-de-
=:	=:
4a	-rum,
16a	fi-
16a	-de-
=5	=5
4f	-rum,
16fL	fi-
16gJ	-de-
=:	=:
4a	-ral-
8a	-la-
=6	=6
4f}	-la
{16fL	bis
16gJ	.
=:	=:
4a	an
8a	den
=7	=7
8.b-L	hel-
16aJ	.
8g	-len
=:	=:
(4g	Mor-
8a)	.
=8	=8
4f}	-gen.
==	==
!!!AGN: Ballade, Betrug, Schwangerschaft, Tod, Selbstmord, Herr und Magd
!! Dritte Zeile = Refrain auf sinnfreie Silben.
!!!ONB: ESAC (Essen Associative Code) Database: BALLADE
!!!AMT: compound duple
!!!AIN: vox
!!!EED: Helmut Schaffrath
!!!EEV: 1.0
!!!source: Deutsche Volkslieder mit ihren Melodien. Herausgegeben vom Deutschen Volksliedarchiv. Dritter Band Balladen. Berlin 1954.
!!!page: 60
!!!ENC: Anna Maria Matuszewska
!!!EEV: 2025/02/18
*-	*-
